icons/mobile/24/svg/lock-slash-24.svg

<svg width="24" height="24" viewBox="0 0 24 24" fill="none" xmlns="http://www.w3.org/2000/svg">
<path d="M8.74902 7.51367V9.63867C8.76043 9.63812 9.19961 10.1075 9.18262 10.1484C9.87762 10.0914 10.5745 10.0541 11.2725 10.0381L13.0264 11.792C12.6834 11.78 12.341 11.75 11.999 11.75C10.348 11.75 8.68371 11.8835 7.05371 12.1475C6.29798 12.2696 5.74913 12.911 5.74902 13.6758V18.3262C5.74911 19.074 6.29098 19.7276 7.00879 19.8447C10.2768 20.3797 13.6693 20.3826 16.9453 19.8516C17.7011 19.7294 18.2499 19.088 18.25 18.3232L18.249 18.3223V17.0127L19.9629 18.7266C19.7869 20.1706 18.6956 21.3411 17.2236 21.5801C15.5018 21.858 13.7439 21.999 11.999 21.999C10.236 21.999 8.46156 21.8553 6.72656 21.5713C5.14583 21.3131 3.99911 19.949 3.99902 18.3262V13.6758C3.99913 12.0489 5.16648 10.679 6.77441 10.418C6.84929 10.406 6.92515 10.4026 6.99902 10.3906V6.99902C6.99902 6.6192 7.04993 6.25233 7.13086 5.89648L8.74902 7.51367Z" fill="black"/>
<path d="M12 2.00098C14.757 2.001 17 4.24401 17 7.00098V10.3945C17.0898 10.4085 17.1816 10.4128 17.2715 10.4277L17.2734 10.4287C18.8542 10.6869 20.0009 12.0511 20.001 13.6738V16.6445L18.251 14.8945V13.6738C18.2509 12.926 17.709 12.2724 16.9912 12.1553C16.4342 12.0643 15.8687 12.0102 15.3057 11.9502L13.4111 10.0547C14.0251 10.0807 14.6391 10.1197 15.25 10.1807V7.00098C15.25 5.20901 13.792 3.751 12 3.75098C10.6781 3.75098 9.54421 4.54585 9.03613 5.68066L7.75195 4.39746C8.63295 2.96646 10.2 2.00098 12 2.00098Z" fill="black"/>
<path d="M2.25579 2.25579C2.5975 1.91408 3.15237 1.91408 3.49407 2.25579L21.7441 20.5058C22.0858 20.8475 22.0858 21.4024 21.7441 21.7441C21.4024 22.0858 20.8475 22.0858 20.5058 21.7441L2.25579 3.49407C1.91408 3.15237 1.91408 2.5975 2.25579 2.25579Z" fill="black"/>
</svg>

<!-- This Source Code Form is subject to the terms of the Mozilla Public
   - License, v. 2.0. If a copy of the MPL was not distributed with this
   - file, You can obtain one at http://mozilla.org/MPL/2.0/. -->
<svg xmlns="http://www.w3.org/2000/svg" width="24" height="24" fill="none" viewBox="0 0 24 24">
    <path fill="#000" d="M8.749 7.514v2.125c.011 0 .45.469.434.51a36 36 0 0 1 2.09-.11l1.753 1.753c-.343-.012-.685-.042-1.027-.042a31 31 0 0 0-4.945.398 1.54 1.54 0 0 0-1.305 1.528v4.65c0 .748.542 1.402 1.26 1.519a31 31 0 0 0 9.936.007 1.54 1.54 0 0 0 1.305-1.529h-.001v-1.31l1.714 1.714a3.28 3.28 0 0 1-2.74 2.853 32.7 32.7 0 0 1-10.497-.009C5.147 21.313 4 19.95 4 18.326v-4.65a3.29 3.29 0 0 1 2.775-3.258c.075-.012.151-.015.225-.027V6.999c0-.38.05-.747.132-1.103zM12 2.001c2.757 0 5 2.243 5 5v3.394c.09.014.182.018.271.033h.002c1.581.259 2.728 1.623 2.728 3.246v2.97l-1.75-1.75v-1.22c0-.748-.542-1.402-1.26-1.519-.557-.09-1.122-.145-1.685-.205l-1.895-1.895c.614.026 1.228.065 1.839.126V7A3.254 3.254 0 0 0 12 3.751a3.25 3.25 0 0 0-2.964 1.93L7.752 4.397C8.632 2.967 10.2 2.001 12 2.001" />
    <path fill="#000" d="M2.256 2.256a.876.876 0 0 1 1.238 0l18.25 18.25a.876.876 0 0 1-1.238 1.238L2.256 3.494a.876.876 0 0 1 0-1.238" />
</svg>
